X:10
T:Sheffield Fair. ET.10
M:3/4
L:1/8
Q:1/4=110
S:Eliza Tennyson MS, Lincolnshire,1822
R:.hornpipe
O:England;Lincolnshire;Somersby
Z:vmp.R.Greig 2011 <http://www.village-music-project.org.uk>
K:D
dc/B/AGFD|EeedcA|dc/B/AGFD|EeAcd2:|!
|:dafadf|Bg/f/ e/f/e/d/ cA|dafadf|egAcd2:|]
T:Revised Version-rebeamed (R.G)
M:3/4
dc/B/ AG FD| Ee ed cA|dc/B/ AG FD |Ee Ac d2:|!
|:da fa df| Bg/f/ e/f/e/d/ cA|da fa df |eg Ac d2:|]
T:Revised Version-new time sig (R.G.)
M:3/2
L:1/4
Q:1/2=110
dc/B/ AG FD| Ee ed cA|dc/B/ AG FD |Ee Ac d2:|!
|:da fa df| Bg/f/ e/f/e/d/ cA|da fa df |eg Ac d2:|]

